X:1
T: Maggie Picking Cockles
C:
R:Reel
Q: 232
K:D
M:4/4
L:1/8
FG|Ad d=c AG EF|GE =cE dE cE|Ad d=c AG EF|GE =cE ED FG|
Ad d=c AE EF|GE =cE dE cE|Ad d=c AG EF|GE =cE ED D2|
|:f2 fd e2 ed|cA AB cd eg|f2 fd e2 ed|ea ge ed d2|
f2 fd e2 ed|cA AB c3d|ed cA AG EF|GE cE ED D2:|
Ad d=c AG EF|GE =cE dE cE|Ad d=c AG EF|GE =cE ED FG|
Ad d=c AE EF|GE =cE dE cE|Ad d=c AG EF|GE =cE ED D2||
